src/assets/pc-banner.svg

<svg width="476" height="404" viewBox="0 0 476 404" fill="none" xmlns="http://www.w3.org/2000/svg">
<path fill-rule="evenodd" clip-rule="evenodd" d="M318.297 118.501C338.987 121.582 359.484 124.639 379.205 127.987C381.013 128.304 382.242 130.023 381.943 131.827L360.864 255.811L341.741 368.413C341.423 370.221 339.704 371.45 337.898 371.133L285.642 362.247L166.573 342.014L318.297 118.501Z" fill="#FFAC9D"/>
<path fill-rule="evenodd" clip-rule="evenodd" d="M131.55 106.665L72.0004 116.876C70.2032 117.191 68.98 118.914 69.2951 120.73L72.8157 141.282L90.5473 244.669L109.835 357.249C110.15 359.047 111.892 360.269 113.689 359.973L165.939 351.004L261.489 334.622L283.964 330.767H272.199L131.55 106.665Z" fill="#F9AC91"/>
<path fill-rule="evenodd" clip-rule="evenodd" d="M333.071 271.056V116.41V114.798V114.261C333.071 113.26 332.645 113.093 331.107 111.592L293.106 75.3442C291.308 73.6391 291.012 73.2129 289.956 73.2129H287.362H132.446C130.538 73.2129 128.981 74.7695 128.981 76.6785V327.04C128.981 328.949 130.538 330.524 132.446 330.524H329.606C331.514 330.524 333.071 328.949 333.071 327.04V271.056Z" fill="url(#paint0_linear)"/>
<path d="M284.695 133.619C285.156 124.036 278.463 117.678 270.909 113.313L265.999 142.159C269.398 141.969 271.06 143.26 271.664 143.867C272.42 144.626 274.308 146.903 272.042 150.509C276.763 149.75 284.137 145.195 284.695 133.619Z" fill="url(#paint1_linear)"/>
<path fill-rule="evenodd" clip-rule="evenodd" d="M220.287 100.036L214.433 94.1529C223.246 93.0775 246.499 94.4565 269.01 108.576C269.387 110.094 269.01 112.371 269.01 112.371L270.898 113.32C272.535 115.66 275.317 122.315 273.353 130.21C271.389 138.104 268.002 141.47 266.555 142.165C263.533 142.165 258.396 143.911 256.735 151.654C255.073 159.397 251.888 161.079 250.503 160.953L217.266 161.332L195.36 148.428L192.149 121.67L198.381 113.32L209.523 104.211L217.455 100.985L220.287 100.036ZM259.542 111.089C258.076 112.616 256.706 113.348 256.315 113.547C247.756 111.727 244.673 107.299 244.673 107.299C252.746 107.249 260.032 109.169 265.362 112.417C265.362 112.417 262.477 111.482 259.542 111.089Z" fill="url(#paint2_linear)"/>
<path fill-rule="evenodd" clip-rule="evenodd" d="M256.442 151.657C250.575 154.536 243.62 156.203 236.162 156.203C215.198 156.203 198.204 143.034 198.204 126.788C198.204 114.788 207.476 104.467 220.772 99.8916C195.485 101.349 175.164 121.664 175.164 146.73C175.164 175.66 200.952 199.563 232.762 199.563C256.516 199.563 276.289 185.791 286.627 167.365C272.402 170.564 255.562 164.482 256.442 151.657Z" fill="url(#paint3_linear)"/>
<path opacity="0.5" fill-rule="evenodd" clip-rule="evenodd" d="M331.429 111.799L295.672 75.3557C293.981 73.6414 293.702 73.2129 292.708 73.2129H290.267L290.337 107.774C290.337 115.506 296.962 115.022 300.152 115.022H333.277V114.481C333.277 113.476 332.876 113.308 331.429 111.799Z" fill="url(#paint4_linear)"/>
<path opacity="0.5" d="M301.758 229.3H162.259C159.564 229.3 157.38 227.115 157.38 224.419C157.38 221.723 159.564 219.538 162.259 219.538H301.758C304.452 219.538 306.637 221.723 306.637 224.419C306.637 227.115 304.453 229.3 301.758 229.3Z" fill="url(#paint5_linear)"/>
<path opacity="0.5" d="M301.758 263.973H162.259C159.564 263.973 157.38 261.788 157.38 259.092C157.38 256.396 159.564 254.211 162.259 254.211H301.758C304.452 254.211 306.637 256.396 306.637 259.092C306.637 261.788 304.453 263.973 301.758 263.973Z" fill="url(#paint6_linear)"/>
<path opacity="0.5" d="M301.758 298.644H162.259C159.564 298.644 157.38 296.459 157.38 293.764C157.38 291.068 159.564 288.883 162.259 288.883H301.758C304.452 288.883 306.637 291.068 306.637 293.764C306.637 296.459 304.453 298.644 301.758 298.644Z" fill="url(#paint7_linear)"/>
<g style="mix-blend-mode:overlay">
<path d="M100.61 172.454L156.178 321.038C171.982 323.768 181.711 327.491 181.711 331.595L181.71 331.645C182.114 333.447 182.082 335.42 181.613 337.565L181.711 337.567L181.4 338.44C180.971 340.043 180.309 341.738 179.412 343.525C164.689 378.45 132.128 403.092 92.0552 403.092C52.5713 403.092 18.8642 379.169 3.64444 345.06C2.3404 342.604 1.42702 340.334 0.900219 338.247C0.821067 338.025 0.739605 337.796 0.658951 337.567L0.739969 337.564C0.327113 335.651 0.252315 333.899 0.515575 332.309L0.658951 331.595L0.675342 331.303C1.14195 327.157 11.5411 323.418 28.0532 320.725L83.5005 172.454C86.1693 165.261 97.9228 165.261 100.61 172.454ZM393.741 172.435L449.297 320.985C464.364 323.562 473.985 327.037 475.042 330.886L474.942 330.685L475.17 331.17C475.937 333.011 476.019 335.135 475.418 337.545L475.42 337.549C475.101 338.807 474.608 340.125 473.933 341.518C459.585 377.51 426.016 403.074 385.186 403.074C344.797 403.074 310.452 378.04 295.757 342.679C294.883 340.948 294.186 339.286 293.831 337.728L293.797 337.568C293.795 337.562 293.792 337.555 293.79 337.549L293.793 337.545L293.722 337.146C293.51 335.738 293.6 333.976 293.991 331.861L294.107 331.272L294.124 331.17L294.16 330.979C295.111 326.989 305.263 323.396 321.159 320.778L376.632 172.435C379.3 165.243 391.054 165.243 393.741 172.435ZM294.166 330.979L294.124 331.17H294.128L294.166 330.979ZM92.0552 201.832L48.5299 318.214C61.2394 317.075 75.7616 316.429 91.1847 316.429L92.9249 316.431C108.434 316.48 122.988 317.183 135.649 318.381L92.0552 201.832ZM385.186 201.832L341.647 318.242C354.43 317.085 369.064 316.429 384.613 316.429L386.353 316.431C401.736 316.48 416.18 317.171 428.768 318.352L385.186 201.832ZM239.906 0.106445C239.906 0.106445 261.585 68.3064 261.585 80.3861C261.585 88.7035 256.796 95.73 249.978 99.4184C255.589 101.244 260.525 104.453 264.382 108.75C272.991 101.226 285.677 94.2362 303.883 94.2362C324.703 94.2362 342.598 103.365 358.392 111.424C363.419 113.988 368.299 116.441 372.814 118.359C376.177 114.781 380.875 112.494 386.14 112.494C396.339 112.494 404.602 120.83 404.602 131.121C404.602 141.411 396.339 149.747 386.14 149.747C377.859 149.747 371.114 144.159 368.774 136.58C362.724 134.256 356.527 131.121 350.148 127.875C336.182 120.756 320.334 112.678 303.883 112.678C288.071 112.678 278.201 120.074 272.571 126.326C272.79 127.912 273.046 129.479 273.046 131.121C273.046 149.581 258.203 164.556 239.906 164.556C221.608 164.556 206.765 149.581 206.765 131.121C206.765 129.479 207.021 127.893 207.241 126.307C201.592 120.037 191.722 112.678 175.928 112.678C159.477 112.678 143.629 120.775 129.645 127.893C123.284 131.139 117.087 134.274 111.037 136.598C108.697 144.178 101.952 149.766 93.6717 149.766C83.4719 149.766 75.2097 141.411 75.2097 131.121C75.2097 120.83 83.4719 112.494 93.6717 112.494C98.9361 112.494 103.634 114.799 106.997 118.359C111.512 116.459 116.375 114.006 121.401 111.424C137.195 103.365 155.108 94.2362 175.928 94.2362C194.134 94.2362 206.82 101.226 215.43 108.75C219.287 104.453 224.222 101.226 229.834 99.4184C223.016 95.73 218.226 88.7219 218.226 80.3861C218.226 68.3064 239.906 0.106445 239.906 0.106445Z" fill="url(#paint8_linear)"/>
</g>
<defs>
<linearGradient id="paint0_linear" x1="128.981" y1="293.462" x2="755.044" y2="-75.9086" gradientUnits="userSpaceOnUse">
<stop stop-color="#FFD4AB"/>
<stop offset="1" stop-color="#FF7C7C"/>
</linearGradient>
<linearGradient id="paint1_linear" x1="265.999" y1="145.151" x2="333.893" y2="119.737" gradientUnits="userSpaceOnUse">
<stop stop-color="#FFF0E2"/>
<stop offset="1" stop-color="#FFECEC"/>
</linearGradient>
<linearGradient id="paint2_linear" x1="192.149" y1="151.615" x2="378.708" y2="-16.8044" gradientUnits="userSpaceOnUse">
<stop stop-color="#FFE9D5"/>
<stop offset="1" stop-color="#FF9F9F"/>
</linearGradient>
<linearGradient id="paint3_linear" x1="175.164" y1="185.207" x2="447.595" y2="-41.4124" gradientUnits="userSpaceOnUse">
<stop stop-color="#FFF0E2"/>
<stop offset="1" stop-color="#FFECEC"/>
</linearGradient>
<linearGradient id="paint4_linear" x1="290.267" y1="109.005" x2="402.456" y2="23.1697" gradientUnits="userSpaceOnUse">
<stop stop-color="#FFE9D5"/>
<stop offset="1" stop-color="#FFE4E4"/>
</linearGradient>
<linearGradient id="paint5_linear" x1="157.38" y1="227.894" x2="162.115" y2="174.041" gradientUnits="userSpaceOnUse">
<stop stop-color="#FFE9D5"/>
<stop offset="1" stop-color="#FFE7E7"/>
</linearGradient>
<linearGradient id="paint6_linear" x1="157.38" y1="262.566" x2="162.115" y2="208.714" gradientUnits="userSpaceOnUse">
<stop stop-color="#FFE9D5"/>
<stop offset="1" stop-color="#FFE7E7"/>
</linearGradient>
<linearGradient id="paint7_linear" x1="157.38" y1="297.238" x2="162.115" y2="243.385" gradientUnits="userSpaceOnUse">
<stop stop-color="#FFE9D5"/>
<stop offset="1" stop-color="#FFE7E7"/>
</linearGradient>
<linearGradient id="paint8_linear" x1="326.288" y1="118.794" x2="67.501" y2="389.277" gradientUnits="userSpaceOnUse">
<stop stop-color="#FF4A4A"/>
<stop offset="0.228034" stop-color="#FF625A" stop-opacity="0.46"/>
<stop offset="1" stop-color="#FFAE8B"/>
</linearGradient>
</defs>
</svg>

<svg xmlns="http://www.w3.org/2000/svg" xmlns:xlink="http://www.w3.org/1999/xlink" width="476" height="404"><defs><linearGradient id="c" x1="358.79" y1="254.11" x2="100.01" y2="-16.38" gradientTransform="matrix(1 0 0 -1 0 404)" gradientUnits="userSpaceOnUse"><stop offset="0" stop-color="#ff8943"/><stop offset="1" stop-color="#ffc087"/></linearGradient><linearGradient id="d" x1="133.34" y1="106.96" x2="342.46" y2="310.7" gradientTransform="matrix(1 0 0 -1 0 404)" gradientUnits="userSpaceOnUse"><stop offset="0" stop-color="#ffd4ab"/><stop offset=".7" stop-color="#ffbd9e" stop-opacity=".64"/><stop offset="1" stop-color="#ffad9f" stop-opacity=".2"/></linearGradient><linearGradient id="a" x1="262.36" y1="268.56" x2="330.26" y2="293.97" gradientTransform="matrix(1 0 0 -1 0 404)" gradientUnits="userSpaceOnUse"><stop offset="0" stop-color="#fff0e2"/><stop offset="1" stop-color="#ffecec"/></linearGradient><linearGradient id="e" x1="198.56" y1="245.28" x2="385.12" y2="413.7" gradientTransform="matrix(1 0 0 -1 0 404)" gradientUnits="userSpaceOnUse"><stop offset="0" stop-color="#ffe9d5"/><stop offset="1" stop-color="#ff9f9f"/></linearGradient><linearGradient id="f" x1="180.19" y1="212.75" x2="452.62" y2="439.37" xlink:href="#a"/><linearGradient id="g" x1="291.02" y1="294.01" x2="403.21" y2="379.84" gradientTransform="matrix(1 0 0 -1 0 404)" gradientUnits="userSpaceOnUse"><stop offset="0" stop-color="#ffe9d5"/><stop offset="1" stop-color="#ffe4e4"/></linearGradient><linearGradient id="b" x1="231.13" y1="169.62" x2="235.87" y2="223.47" gradientTransform="matrix(1 0 0 -1 0 404)" gradientUnits="userSpaceOnUse"><stop offset="0" stop-color="#ffe9d5"/><stop offset="1" stop-color="#ffe7e7"/></linearGradient><linearGradient id="h" x1="231.13" y1="134.95" x2="235.87" y2="188.8" xlink:href="#b"/><linearGradient id="i" x1="231.13" y1="100.28" x2="235.87" y2="154.13" xlink:href="#b"/></defs><path d="M100.61 172.45L156.18 321c15.8 2.73 25.53 6.45 25.53 10.56a13.7 13.7 0 01-.1 5.93h.1l-.31.87a26.69 26.69 0 01-2 5.08c-14.72 34.93-47.28 59.57-87.35 59.57-39.49 0-73.2-23.92-88.42-58a31.35 31.35 0 01-2.73-6.76l-.24-.68h.08a13.91 13.91 0 01-.22-5.25l.14-.71v-.3c.46-4.14 10.86-7.88 27.37-10.57L83.5 172.45c2.67-7.19 14.42-7.19 17.11 0zm293.13 0L449.3 321c15.06 2.56 24.7 6 25.7 9.89l-.1-.21.23.49a10 10 0 01.25 6.38 20.83 20.83 0 01-1.49 4c-14.35 36-47.91 61.55-88.74 61.55-40.39 0-74.74-25-89.43-60.39a22.28 22.28 0 01-1.93-4.95v-.16l-.07-.4a16.54 16.54 0 01.27-5.29l.12-.59V331.03c.95-4 11.1-7.58 27-10.2l55.47-148.35c2.72-7.24 14.47-7.24 17.16-.05zM294.17 331l-.05.19zM92.06 201.83L48.53 318.21a488.2 488.2 0 0142.65-1.78h1.74c15.51.05 30.07.75 42.73 1.95zm293.13 0l-43.54 116.41a482.56 482.56 0 0143-1.81h1.74c15.39.05 29.83.74 42.42 1.92zM239.91.11s21.67 68.2 21.67 80.28a21.66 21.66 0 01-11.6 19 32.93 32.93 0 0114.4 9.33c8.61-7.52 21.3-14.51 39.5-14.51 20.82 0 38.72 9.12 54.51 17.18 5 2.57 9.91 5 14.42 6.94a18.27 18.27 0 0113.33-5.87 18.63 18.63 0 010 37.26 18.25 18.25 0 01-17.37-13.17 202.94 202.94 0 01-18.62-8.7c-14-7.12-29.82-15.2-46.27-15.2-15.81 0-25.68 7.39-31.31 13.65a34.39 34.39 0 01.48 4.79 33.15 33.15 0 11-66.29 0 34.68 34.68 0 01.48-4.81c-5.65-6.27-15.52-13.63-31.31-13.63-16.45 0-32.3 8.1-46.28 15.21A201.74 201.74 0 01111 136.6a18.25 18.25 0 01-17.37 13.17 18.64 18.64 0 010-37.28 18.32 18.32 0 0113.37 5.87c4.51-1.9 9.38-4.35 14.4-6.94 15.8-8.06 33.71-17.18 54.53-17.18 18.2 0 30.89 7 39.5 14.51a32.84 32.84 0 0114.4-9.33 21.66 21.66 0 01-11.6-19c0-12.11 21.68-80.31 21.68-80.31z" fill="url(#c)"/><path d="M259.54 111.09c20.69 3.08 99.94 13.55 119.66 16.9a3.35 3.35 0 012.74 3.84l-21.08 124-19.12 112.6a3.33 3.33 0 01-3.84 2.72l-52.26-8.88L166.57 342z" fill="#ffac9d" fill-rule="evenodd" opacity=".7"/><path d="M192.15 99.89L72 116.88a3.32 3.32 0 00-2.7 3.85l3.52 20.55 17.73 103.39 19.28 112.58a3.37 3.37 0 003.86 2.72l52.25-9 106.26-20.2z" fill="#f9ac91" fill-rule="evenodd" opacity=".8"/><path d="M333.07 271.06v-156.8c0-1-.43-1.17-2-2.67l-38-36.25c-1.8-1.7-2.1-2.13-3.15-2.13H132.45a3.48 3.48 0 00-3.45 3.47V327a3.49 3.49 0 003.47 3.48h197.14a3.48 3.48 0 003.46-3.48z" fill-rule="evenodd" fill="url(#d)"/><path d="M284.7 133.62c.46-9.58-6.24-15.94-13.79-20.31L266 142.16c3.4-.19 5.06 1.1 5.66 1.71.76.76 2.65 3 .38 6.64 4.72-.76 12.1-5.31 12.66-16.89z" fill="url(#a)"/><path d="M220.29 100l-5.86-5.89c8.82-1.07 32.07.31 54.58 14.43a11.56 11.56 0 010 3.79l1.89.95c1.64 2.34 4.42 9 2.45 16.89s-5.35 11.26-6.8 11.95c-3 0-8.15 1.75-9.82 9.49s-4.84 9.43-6.23 9.3l-33.23.38-21.91-12.9-3.21-26.76 6.23-8.35 11.14-9.11 7.94-3.22zm39.25 11a12.27 12.27 0 01-3.22 2.46c-8.56-1.82-11.65-6.25-11.65-6.25 8.08 0 15.36 1.87 20.69 5.12a37.35 37.35 0 00-5.82-1.24z" fill-rule="evenodd" fill="url(#e)"/><path d="M256.44 151.66a46.13 46.13 0 01-20.28 4.54c-21 0-38-13.17-38-29.41 0-12 9.28-22.32 22.57-26.9-25.28 1.46-45.61 21.77-45.61 46.84 0 28.93 25.79 52.83 57.6 52.83 23.76 0 43.53-13.77 53.87-32.19-14.19 3.19-31.03-2.89-30.15-15.71z" fill-rule="evenodd" fill="url(#f)"/><path d="M331.43 111.8l-35.76-36.44c-1.69-1.72-2-2.15-3-2.15h-2.44l.07 34.56c0 7.74 6.62 7.25 9.81 7.25h33.13v-.54c.04-1-.36-1.17-1.81-2.68z" fill-rule="evenodd" opacity=".5" fill="url(#g)" style="isolation:isolate"/><path d="M301.76 229.3h-139.5a4.88 4.88 0 110-9.76h139.5a4.88 4.88 0 010 9.76z" opacity=".5" fill="url(#b)" style="isolation:isolate"/><path d="M301.76 264h-139.5a4.88 4.88 0 110-9.76h139.5a4.88 4.88 0 110 9.76z" opacity=".5" fill="url(#h)" style="isolation:isolate"/><path d="M301.76 298.64h-139.5a4.88 4.88 0 010-9.76h139.5a4.88 4.88 0 010 9.76z" opacity=".5" fill="url(#i)" style="isolation:isolate"/></svg>
